X: 31008
T: Pacific Avenue
R: jig
M: 6/8
K: Gmajor
|:"G"DGA ~B3|"C"cBc "D"dfa|"G"g2 d Bcd|"C"dec "D"A2 B|
"C"~c3 ~D3|"D7"FAc dfa|"G"gdB "C"cAd|1 "D"cAF "G"GFE:|2 "D"cAF "G"GAB||
"C"~c3 AED|CEG "D"DFA|"G"~B3 BAB|"C"cdc "D"A2B|
"C"~c3 AED|CEG "D"DFA|"G"B2 B "C"cAF|"D"DGF "G"GAB|
"C"~c3 AED|CEG "D"DFA|"G"~B3 BAB|"C"cdc "D"A2e|
fdd gdd|eff age|DDf "D7"fed|cAF "G"GFE||

